img/donate.svg

<svg fill="none" height="800" viewBox="0 0 24 24" width="800" xmlns="http://www.w3.org/2000/svg">
    <g fill="#ffffff">
        <path d="m16.5 13.2871c-2.4749-2.7158-5.5-.7125-5.5 2.1124 0 2.5588 1.814 4.0349 3.3584 5.2917l.0434.0353c.1456.1184.2885.235.4272.3504.571.4754 1.121.9231 1.671.9231s1.1-.4477 1.671-.9231c1.6183-1.3473 3.829-2.8526 3.829-5.6774 0-.928-.3265-1.7674-.8526-2.3798-1.0756-1.252-2.9855-1.5562-4.6474.2674z"/>
        <path d="m8.10627 18.2468c-2.80808-2.1635-6.10627-4.7046-6.10627-9.1097 0-4.86294 5.50016-8.311636 10-3.63647 4.4998-4.675166 10-1.22647 10 3.63647 0 .83357-.1181 1.6004-.3286 2.3106-.719-.5776-1.6204-.9421-2.6194-.9477-.89-.005-1.7584.2745-2.5532.8101-1.3889-.9328-2.9559-1.0583-4.329-.3954-1.6353.7895-2.6698 2.5558-2.6698 4.4847 0 2.3052 1.1485 3.9223 2.3415 5.0943-.9473-.0753-1.89636-.8076-2.87977-1.5828-.27702-.2184-.56359-.4392-.85546-.6641z"/>
    </g>
</svg>

<?xml version="1.0" encoding="utf-8"?><!-- Uploaded to: SVG Repo, www.svgrepo.com, Generator: SVG Repo Mixer Tools -->
<svg width="800px" height="800px" viewBox="0 0 24 24" fill="none" xmlns="http://www.w3.org/2000/svg">
    <path d="M16.5 13.2871C14.0251 10.5713 11 12.5746 11 15.3995C11 17.9583 12.814 19.4344 14.3584 20.6912L14.4018 20.7265C14.5474 20.8449 14.6903 20.9615 14.829 21.0769C15.4 21.5523 15.95 22 16.5 22C17.05 22 17.6 21.5523 18.171 21.0769C19.7893 19.7296 22 18.2243 22 15.3995C22 14.4715 21.6735 13.6321 21.1474 13.0197C20.0718 11.7677 18.1619 11.4635 16.5 13.2871Z"
          fill="#FFFFFF"/>
    <path d="M8.10627 18.2468C5.29819 16.0833 2 13.5422 2 9.1371C2 4.27416 7.50016 0.825464 12 5.50063C16.4998 0.825464 22 4.27416 22 9.1371C22 9.97067 21.8819 10.7375 21.6714 11.4477C20.9524 10.8701 20.051 10.5056 19.052 10.5C18.162 10.495 17.2936 10.7745 16.4988 11.3101C15.1099 10.3773 13.5429 10.2518 12.1698 10.9147C10.5345 11.7042 9.5 13.4705 9.5 15.3994C9.5 17.7046 10.6485 19.3217 11.8415 20.4937C10.8942 20.4184 9.94514 19.6861 8.96173 18.9109C8.68471 18.6925 8.39814 18.4717 8.10627 18.2468Z"
          fill="#FFFFFF"/>
</svg>
